X: 5
T: Ned Of The Hill
R: waltz
M: 3/4
L: 1/8
K: Gmaj
||BA|G3 E F2|G4 GA|B2 g2 f2|e4 ge|d2 B2 A2|G3 A B2|c3 B AG|E4 BA|G2 E2 F2|G4 GA|B g3 f2|e4 ge|d2 B2 A2|G3 A B2|A3 G GF|G4 d2|e c3 g2|d4 d2|e2 f3 e|d4 de|d2 B2 A2|G3 A B2|c3 B AG|E4 BA|G2 E2 F2|G4 GA|B2 g3 f|e4 ge|d3 e dB|A2 G2 AB|A3 G GF|G4 ||


Tune 6508	Setting 23081

